X:1
T:D Major Walter Janes, 1807
T:Isaac Watts, 1717 (Psalm 93, Part 3)          668. 668.
T:Majesty
T:Transcribed from The Harmonic Minstrelsey, 1807.
%%score [ 1 2 3 4 ]
L:1/8
Q:1/4=160
M:4/4
K:D
V:1 treble nm="Tr." snm="Tr."
V:2 treble nm="C." snm="C."
V:3 treble-8 nm="T." snm="T."
V:4 bass nm="B." snm="B."
V:1
"^1. The Lord  Je–ho–vah  reigns,             And   ro         –       yal    state  maintains,              His head with awful glories crowned;" A4 | %1
 d6 d2 | e6 c2 | [Ad]8 | z4 A4 | A6 F2 | (G2 A2) (B2 e2) | c8 | z4 A4 | A2 c2 d2 A2 | B4 A4 | A8 |: %12
 z4"^Ar  –  rayed   in    robes          of  light,       Be – girt  with  sovereign might,  And rays  of  ma  –  jes  –   ty      a  –  round." F4 | %13
 A6 F2 | (B2 A2 G2) F2 | E6 z2 | z8 | z8 | z4 A4 | A6 c2 | (d2 A2) (B2 e2) | A4 A4 | A8 :| %23
V:2
"^2. Upheld  by  thy  commands,                  The   world         se – cure – ly     stands;              And skies and stars obey thy word:" D4 | %1
 F6 D2 | G6 E2 | F8 | z4 D4 | (C3 D E2) F2 | E4 E4 | E8 | z4 F4 | F2 A2 A2 A2 | (G2 F2) E4 | F8 |: %12
"^Thy   throne  was  fixed       on   high      Be– fore   the  star    –     ry   sky;  E  –  ter  – nal  is        thy      kingdom,  Lord." z8 | %13
 z8 | z8 | z4 z2 E2 | F6 E2 | (D2 E2 F2) D2 | E4 F4 | F6 A2 | A4 G4 | F4 E4 | F8 :| %23
V:3
"^3. In   vain   the   noi – sy   crowd,        Like   bil     –       lows    fierce  and      loud,           Against thine empire rage and roar;" F4 | %1
 A6 F2 | B6 A2 | d8- | d4 f4 | (e3 f e2) d2 | c4 B4 | A8- | A4 A4 | d2 e2 f2 f2 | (e2 d2) c4 | %11
 d8 |: %12
"^In      vain,   with  an    –    gry   spite,     The  surly        nations        fight,  And dash like waves a  –  gainst  the  shore." z8 | %13
 z8 | z8 | z4 z2 A2 | d6 A2 | (B2 c2 d2) B2 | [Ac]4 A4 | d6 e2 | f4 e4 | d4 c4 | d8 :| %23
V:4
"^4. Let   floods  and nations rage,            And   all              their  powers  en – gage;            Let  swelling  tides  assault  the sky;""^5. Thy  pro – mi – ses   are  true,             Thy   grace            is      ev   –   er     new:    There fixed, thy church shall ne'er remove;" D,4 | %1
 D,6 F,2 | E,6 A,2 | D,8- | D,4 D,4 | A,6 D,2 | E,4 E,4 | A,,8- | A,,4 D,4 | D,2 A,2 D2 F,2 | %10
 G,4 A,4 | [D,D]8 |: %12
 z4"^The     terrors        of             thy frown  Shall beat their madness down:  Thy throne for ev  –  er        stands on high.""^Thy     saints  with  ho   –   ly    fear     Shall   in   thy   courts   ap – pear,  And  sing  thine  e – ver – las – ting     love." D,4 | %13
 D,6 D,2 | (G,2 F,2 E,2) D,2 | A,6 z2 | z8 | z8 | z4 D,4 | D,6 A,2 | D4 G,4 | A,4 [A,,A,]4 | D,8 :| %23

